X: 39610
T: Temperance
R: reel
M: 4/4
K: Gmajor
|:(3DEF|G3F GABc|dgge dBAc|BEED EFGA|BGAF GFED|
G3F GABc|dgge dBAc|BEED EFGA|BGAF G2:|
|:A2|Beed e3f|geaf gfed|Add^c d3e|fdaf gfed|
Beed e3f|geaf gfed|BEED EFGA|BGAF G2:|

